X:1
T:Galopede
L: 1/8
M: 4/4
K: G
dc | "G"B2Bc "D"A2AB | "G"G2G2G2AB | "Am"cB cd ed cB | "D"A2A2A2dc |
"G"B2Bc "D"A2AB | "Em"G2G2G2AB | "Am"cB AG "D7"FG AF | "G"G2G2G2:|
Bc | "G"d2gf "C"e2e2| "G"dc Bc "D7"A2Bc | "G"d2gf "Am"ed cB | "D"A2A2A2Bc |
"G"d2gf "C"e2e2| "G"dc Bc "D"A2dc | "G"Bd cB "D7"Ac BA | "G"G2G2G2 Bc |
"G"d2ddd2g2| "G"d2ddd2g2| "G"d2d2"Am"ed cB | "D7"A2A2A2Bc |
"G"d2ddd2g2| "G"d2ddd2g2| "C"ed cB "D7"dc BA | "G"G2G2G2|]
%%newpage
%% *******************************************

